X:146
T:Richi?u-chi?u
T:D?di?e ? mon ami Bernard
R:Polka
S:Carnet du tambourinaire Ginas (1924)
O:France
A:Provence
C:J. Ginas
K:Bb
L:1/8
Z:Transcrit et/ou corrig? par Michel BELLON - 2005-06-04
Z:Pour toute observation mailto:galouvielle@free.fr
M:2/4
S eB B2 | fB B2 | c/d/e/f/ g2 | agf2 | b/a/g/f/ e2 | a>aa2 | a/g/f/e/ d2 | g>g g2 | B/c/d/e/ f2 | bgf2 | c/d/e/c/ f2 | BB B2 !fine! ::
Bfc2 | Bge2 | f/e/f/e/ f2 | bge2 | Bge2 | Bgf2 | f/g/a/b/ f2 | f/e/d/c/ B2 | bbb2 bbb2 | B>BB2- | B4 ::
eB B2 | fB B2 | c/d/e/f/ g2 | agf2 | b/a/g/f/ e2 | aaa2 | a/g/f/e/ d2 | gg g2 | B/c/d/e/ f2 | bgf2 | c/d/e/c/ f2 | BB B2  ::
B/g/B/g/ B2 | _aaa2 | B/f/B/f/ B2 | ggg2 | e/f/e/d/ c2 | agf2 | c/d/e/f/ g2 | ag f2 | f/b/f/d/ e2 | aaa2 | c/d/e/f/ g2 | af b2 ::
gzgz | feB2 | B/c/d/e/ f2 | bf g2 | gzgz | feB2 | d/e/f/e/ B2 | cde2 S :|
<end>
<start>
